X: 16192
T: Away Whigs away
%R: march, reel
B: James Oswald "The Caledonian Pocket Companion" v.1 b.6 p.19 #2
S: https://ia800501.us.archive.org/18/items/caledonianpocket01rugg/caledonianpocket01rugg_bw.pdf
Z: 2020 John Chambers <jc:trillian.mit.edu>
M: C|
L: 1/8
K: G	% and Em
%%slurgraces 1
%%graceslurs 1
(Bc) |\
d4 d3B | d4 d2Bd | e4 e3d | e4 e2g2 |\
{e}d2B2 {B}A2G2 | G3B B2(AG) | (AB)(de) (dB)(AG) | E4 E2 :|
|: AB |\
dBdg dgBg | d4 d2gf | egdg egdg | e4 e2ge |\
dBde gabd | BdAB GABG | ABge dBAG | E4 E2 :|


